storage/app/icons/phosphoricons/bold/selection-bold.svg

<svg xmlns="http://www.w3.org/2000/svg" fill="currentColor" viewBox="0 0 256 256"><path d="M156 40a12 12 0 0 1-12 12h-32a12 12 0 0 1 0-24h32a12 12 0 0 1 12 12m-12 164h-32a12 12 0 0 0 0 24h32a12 12 0 0 0 0-24m64-176h-24a12 12 0 0 0 0 24h20v20a12 12 0 0 0 24 0V48a20 20 0 0 0-20-20m8 72a12 12 0 0 0-12 12v32a12 12 0 0 0 24 0v-32a12 12 0 0 0-12-12m0 72a12 12 0 0 0-12 12v20h-20a12 12 0 0 0 0 24h24a20 20 0 0 0 20-20v-24a12 12 0 0 0-12-12M40 156a12 12 0 0 0 12-12v-32a12 12 0 0 0-24 0v32a12 12 0 0 0 12 12m32 48H52v-20a12 12 0 0 0-24 0v24a20 20 0 0 0 20 20h24a12 12 0 0 0 0-24m0-176H48a20 20 0 0 0-20 20v24a12 12 0 0 0 24 0V52h20a12 12 0 0 0 0-24"/></svg>

<svg xmlns="http://www.w3.org/2000/svg" viewBox="0 0 256 256" fill="currentColor"><path d="M156,40a12,12,0,0,1-12,12H112a12,12,0,0,1,0-24h32A12,12,0,0,1,156,40ZM144,204H112a12,12,0,0,0,0,24h32a12,12,0,0,0,0-24ZM208,28H184a12,12,0,0,0,0,24h20V72a12,12,0,0,0,24,0V48A20,20,0,0,0,208,28Zm8,72a12,12,0,0,0-12,12v32a12,12,0,0,0,24,0V112A12,12,0,0,0,216,100Zm0,72a12,12,0,0,0-12,12v20H184a12,12,0,0,0,0,24h24a20,20,0,0,0,20-20V184A12,12,0,0,0,216,172ZM40,156a12,12,0,0,0,12-12V112a12,12,0,0,0-24,0v32A12,12,0,0,0,40,156Zm32,48H52V184a12,12,0,0,0-24,0v24a20,20,0,0,0,20,20H72a12,12,0,0,0,0-24ZM72,28H48A20,20,0,0,0,28,48V72a12,12,0,0,0,24,0V52H72a12,12,0,0,0,0-24Z"/></svg>
